X:1
T:F Major William Billings, 1770
T:Isaac Watts, 1709 (Hymn 51, Book 1) 66. 86. (S. M.)
T:Attleborough No copyright.  Transcribed from The New England Psalm-Singer, 1770.
%%score [ 1 2 3 4 ]
L:1/8
M:3/2
K:F
V:1 treble nm="Tr." snm="Tr."
V:2 treble nm="C." snm="C."
V:3 treble-8 nm="T." snm="T."
V:4 bass nm="B." snm="B."
V:1
 A4 | (c4 f4) f4 | (c4 d4) c4 | c8 f4 | (f4 c4) f4 | (f4 c4) B4 | G8 c4 | (f4 e4) d4 | (d4 c4) c4 | %9
w: 1.~To|God * the|on- * ly|wise, Our|Sav- * ior|and * our|King, Let|all * the|saints * be-|
 c8 c4 | c8 c4 | (A3 B c4) d4 | c8 c4 | c8 |] %14
w: low the|skies Their|hum- * * ble|prai- ses|bring.|
V:2
 C4 | (A,3 B, C4) F4 | (E4 F4) [EG]4 | [FA]8 A4 | A8 A4 | (F3 G A4) G4 | G8 A4 | (A4 G4) A4 | %8
w: 2.~'Tis|His * * al-|migh- * ty|love, His|coun- sel,|and * * His|care, Pre-|served * us|
w: 3.~He|will * * pre-|sent * our|souls, Un-|blem- ished|and * * com-|plete, Be-|fore * the|
 (G2 F2 E2 F2) G4 | A8 F4 | E8 F4 | A8 F4 | F8 [EG]4 | [FA]8 |] %14
w: safe * * * from|sin and|death, And|eve- ry|hurt- ful|snare.|
w: glo- * * * ry|of His|face, With|joys di-|vine- ly|great.|
V:3
 F4 | (c4 d2 c2) (B2 A2) | (G3 A B2 A2) G4 | F8 c4 | (d3 e f2 e2) d4 | (c4 f2 e2) d4 | c8 c4 | %7
w: 4.~Then|all * * the *|cho- * * * sen|seed Shall|meet * * * a-|round * * the|throne, Shall|
w: 5.~To|our * * Re- *|dee- * * * mer,|God, Wis-|dom * * * and|power * * be-|longs; Im-|
 (d2 c2 B4) A4 | (B2 c2 F4) C4 | (FGAB c2 B2) A4 | G8 c4 | (d2 f2 c4) B4 | (A2 F2 B2 A2) G4 | F8 |] %14
w: bless * * the|con- * * duct|of * * * * * His|grace, And|make * * His|won- * * * ders|known.|
w: mor- * * tal|crowns * * of|maj- * * * * * es-|ty, And|ev- * * er-|last- * * * ing|songs.|
V:4
 F,4 | F,8 D,4 | (C,4 D,2 B,,2) C,4 | F,,8 [F,,F,]4 | F,8 [F,,F,]4 | F,8 [G,,G,]4 | C,8 [F,,F,]4 | %7
 ([F,,D,]4 [G,,E,]4) [F,,F,]4 | ([G,,G,]4 [A,,A,]4) [G,,G,]4 | [F,,F,]8 [F,,F,]4 | C,8 [F,,F,]4 | %11
 [F,,F,]8 [D,,D,]4 | [F,,F,]8 C,4 | F,,8 |] %14

